assets/Hot springs/Flat/hot_springs_flat.svg

<svg width="32" height="32" viewBox="0 0 32 32" fill="none" xmlns="http://www.w3.org/2000/svg">
<path d="M16.0237 3.93807C16.3743 2.90256 16.6608 2.05611 16.3529 2.00148C15.6629 1.92148 13.0029 5.10148 12.6029 6.99148C12.3829 7.93148 12.4629 8.92148 12.9029 9.88148C12.9606 10.0795 13.0933 10.2776 13.2222 10.47C13.2495 10.5108 13.2767 10.5513 13.3029 10.5915C13.342 10.6477 13.3793 10.7044 13.4167 10.7614C13.5324 10.9375 13.6491 11.1152 13.8229 11.2815L14.9329 12.4215C15.5329 13.0615 15.9529 13.7715 16.1429 14.5415C16.4229 15.3015 16.4029 16.1115 16.3529 16.9315C16.2895 17.7305 15.8393 18.9213 15.4508 19.9485C15.042 21.0296 14.7016 21.9297 14.9529 22.0015C15.5029 22.1415 18.3529 18.9515 19.0529 17.1415C19.4429 16.2415 19.5529 15.2815 19.4329 14.3115C19.3329 13.3415 18.8429 12.3515 18.0129 11.4615L16.8629 10.3315C16.5429 10.0215 16.2829 9.67148 16.0629 9.32148C15.5629 8.62148 15.4229 7.84148 15.3129 7.04148C15.2474 6.2311 15.6684 4.9875 16.0237 3.93807Z" fill="#F8312F"/>
<path d="M25.8129 13.0015C26.3029 12.4815 28.1629 14.8115 28.7529 17.1315C29.0329 18.2915 29.0329 19.5315 28.8729 20.7615C28.6629 21.9815 28.1629 23.1215 27.5329 24.1415C26.2529 26.1915 24.3629 27.6415 22.3629 28.6215C20.3429 29.5615 18.1629 30.0115 16.0029 30.0215C13.8329 30.0015 11.6629 29.5515 9.64288 28.6215C7.64288 27.6415 5.75288 26.1915 4.47288 24.1415C3.84288 23.1215 3.34287 21.9815 3.13287 20.7615C2.94287 19.5415 2.94288 18.3015 3.22288 17.1415C3.81288 14.8115 5.67287 12.4915 6.16287 13.0115C6.41583 13.2743 6.17185 13.8915 5.85923 14.6822C5.54154 15.4858 5.15296 16.4687 5.14288 17.4415C5.12288 19.2615 5.84288 20.8615 6.93288 22.1015C8.02288 23.3515 9.48288 24.2615 11.0429 24.8815C12.6129 25.4515 14.2929 25.7615 15.9829 25.7615C17.6729 25.7615 19.3529 25.4615 20.9329 24.8715C22.4929 24.2615 23.9529 23.3515 25.0429 22.0915C26.1329 20.8415 26.8529 19.2415 26.8329 17.4315C26.8228 16.4664 26.4363 15.4886 26.1191 14.6862C25.8052 13.8923 25.5592 13.27 25.8129 13.0015Z" fill="#F8312F"/>
<path d="M21.8829 4.00153C22.1211 4.0462 21.8987 4.72148 21.6264 5.54812C21.3502 6.38702 21.0225 7.38178 21.0729 8.03153C21.1629 8.67153 21.2729 9.29153 21.6529 9.85153C21.8229 10.1315 22.0229 10.4115 22.2729 10.6615L23.1729 11.5615C23.8129 12.2715 24.2029 13.0615 24.2729 13.8415C24.3629 14.6215 24.2829 15.3815 23.9729 16.1015C23.4329 17.5515 21.2129 20.1015 20.7829 19.9815C20.587 19.9197 20.8535 19.1933 21.1729 18.3232C21.4729 17.5056 21.8196 16.561 21.8729 15.9215C21.9129 15.2615 21.9229 14.6215 21.7129 14.0115C21.5629 13.4015 21.2429 12.8315 20.7729 12.3115L19.9029 11.4015C19.7772 11.2828 19.6905 11.1495 19.6054 11.0186C19.5686 10.962 19.5321 10.9058 19.4929 10.8515C19.4683 10.8127 19.443 10.7742 19.4177 10.736C19.3194 10.5872 19.2226 10.4405 19.1829 10.2815C18.8429 9.51153 18.7729 8.72153 18.9529 7.97153C19.2729 6.48153 21.3429 3.94153 21.8829 4.00153Z" fill="#F8312F"/>
<path d="M10.3964 5.54812C10.6687 4.72148 10.8911 4.0462 10.6529 4.00153C10.1229 3.94153 8.05287 6.48153 7.72287 7.97153C7.54287 8.72153 7.61287 9.51153 7.95287 10.2815C7.99262 10.4405 8.08927 10.5869 8.18752 10.7357C8.21284 10.7741 8.23828 10.8126 8.26288 10.8515C8.30211 10.9058 8.3386 10.962 8.37539 11.0186C8.46051 11.1495 8.54719 11.2828 8.67287 11.4015L9.54287 12.3115C10.0129 12.8315 10.3329 13.4015 10.4829 14.0115C10.6929 14.6215 10.6829 15.2615 10.6429 15.9215C10.5896 16.561 10.2429 17.5056 9.94286 18.3232C9.62353 19.1933 9.35697 19.9197 9.55288 19.9815C9.98288 20.1015 12.2029 17.5515 12.7429 16.1015C13.0529 15.3815 13.1329 14.6215 13.0429 13.8415C12.9729 13.0615 12.5829 12.2715 11.9429 11.5615L11.0429 10.6615C10.7929 10.4115 10.5929 10.1315 10.4229 9.85153C10.0429 9.29153 9.93287 8.67153 9.84287 8.03153C9.7925 7.38178 10.1201 6.38701 10.3964 5.54812Z" fill="#F8312F"/>
</svg>

<svg xmlns="http://www.w3.org/2000/svg" width="32" height="32" fill="none"><path fill="#F8312F" d="M16.024 3.938c.35-1.035.637-1.882.329-1.937-.69-.08-3.35 3.1-3.75 4.99-.22.94-.14 1.93.3 2.89.058.198.19.397.32.589l.08.121.114.17c.115.177.232.354.406.52l1.11 1.14c.6.64 1.02 1.35 1.21 2.12.28.76.26 1.57.21 2.39-.064.8-.514 1.99-.902 3.017-.409 1.082-.75 1.982-.498 2.053.55.14 3.4-3.05 4.1-4.86.39-.9.5-1.86.38-2.83-.1-.97-.59-1.96-1.42-2.85l-1.15-1.13c-.32-.31-.58-.66-.8-1.01-.5-.7-.64-1.48-.75-2.28-.066-.81.355-2.054.71-3.103Z"/><path fill="#F8312F" d="M25.813 13.002c.49-.52 2.35 1.81 2.94 4.13.28 1.16.28 2.4.12 3.63-.21 1.22-.71 2.36-1.34 3.38-1.28 2.05-3.17 3.5-5.17 4.48-2.02.94-4.2 1.39-6.36 1.4-2.17-.02-4.34-.47-6.36-1.4-2-.98-3.89-2.43-5.17-4.48-.63-1.02-1.13-2.16-1.34-3.38-.19-1.22-.19-2.46.09-3.62.59-2.33 2.45-4.65 2.94-4.13.253.262.009.88-.304 1.67-.317.804-.706 1.787-.716 2.76-.02 1.82.7 3.42 1.79 4.66 1.09 1.25 2.55 2.16 4.11 2.78 1.57.57 3.25.88 4.94.88 1.69 0 3.37-.3 4.95-.89 1.56-.61 3.02-1.52 4.11-2.78 1.09-1.25 1.81-2.85 1.79-4.66-.01-.966-.397-1.943-.714-2.746-.314-.794-.56-1.416-.306-1.684Z"/><path fill="#F8312F" d="M21.883 4.002c.238.044.016.72-.257 1.546-.276.839-.604 1.834-.553 2.484.09.64.2 1.26.58 1.82.17.28.37.56.62.81l.9.9c.64.71 1.03 1.5 1.1 2.28.09.78.01 1.54-.3 2.26-.54 1.45-2.76 4-3.19 3.88-.196-.062.07-.789.39-1.659.3-.817.647-1.762.7-2.402.04-.66.05-1.3-.16-1.91-.15-.61-.47-1.18-.94-1.7l-.87-.91a1.988 1.988 0 0 1-.298-.382c-.036-.057-.073-.113-.112-.168a6.928 6.928 0 0 0-.075-.115c-.099-.149-.195-.296-.235-.455-.34-.77-.41-1.56-.23-2.31.32-1.49 2.39-4.03 2.93-3.97ZM10.396 5.548c.273-.827.495-1.502.257-1.546-.53-.06-2.6 2.48-2.93 3.97-.18.75-.11 1.54.23 2.31.04.159.136.305.235.454l.075.115c.04.055.076.111.112.168.086.13.172.264.298.383l.87.91c.47.52.79 1.09.94 1.7.21.61.2 1.25.16 1.91-.053.639-.4 1.584-.7 2.401-.32.87-.586 1.597-.39 1.659.43.12 2.65-2.43 3.19-3.88.31-.72.39-1.48.3-2.26-.07-.78-.46-1.57-1.1-2.28l-.9-.9c-.25-.25-.45-.53-.62-.81-.38-.56-.49-1.18-.58-1.82-.05-.65.277-1.645.553-2.484Z"/></svg>
